src/assets/images/decor-leaves-5.svg

<svg width="208" height="248" viewBox="0 0 208 248" fill="none" xmlns="http://www.w3.org/2000/svg">
  <g opacity="1">
    <path fill-rule="evenodd" clip-rule="evenodd"
      d="M-42.0621 181.838C-47.6244 190.054 -53.0243 198.362 -58.2617 206.764L-66.967 204.262C-59.8123 184.181 -49.296 165.356 -39.6442 145.495C-24.4272 114.213 -6.37313 81.8239 21.9558 61.6432C50.2847 41.4626 70.4708 17.7382 106.415 0.4795C78.1955 26.0597 53.7388 59.155 29.2513 88.4089C4.08483 118.436 -20.1055 149.353 -42.0621 181.838Z"
      fill="#36532A" />
    <path fill-rule="evenodd" clip-rule="evenodd"
      d="M-49.677 209.3C-13.8131 184.315 24.167 162.513 63.8294 144.142C109.143 123.128 160.586 148.635 207.457 165.923C162.416 162.346 116.095 148.343 73.4401 163.189C33.777 177.213 -5.15514 193.223 -43.2087 211.159L-49.677 209.3Z"
      fill="#36532A" />
    <path fill-rule="evenodd" clip-rule="evenodd"
      d="M-39.2715 212.29L-40.2558 212.007C-19.8796 202.638 1.53291 195.709 23.5362 191.364C50.3231 186.084 78.4188 198.835 103.541 209.555C133.579 222.338 165.961 227.493 192.106 247.03C163.675 235.207 132.158 228.003 101.58 223.892C68.364 219.425 34.4022 222.656 0.699146 223.832L-39.2715 212.29Z"
      fill="#36532A" />
    <path fill-rule="evenodd" clip-rule="evenodd"
      d="M-56.976 207.202C-29.676 168.019 1.56711 131.735 36.2642 98.9191C76.4817 60.9171 145.344 74.5912 199.92 83.8002C152.693 88.3114 103.884 85.7129 65.4625 113.467C23.8647 143.463 -18.2439 171.72 -53.4516 208.229L-56.976 207.202Z"
      fill="#36532A" />
  </g>
</svg>

<svg xmlns="http://www.w3.org/2000/svg" width="208" height="248" fill="none"><g fill="#36532A" fill-rule="evenodd" clip-rule="evenodd"><path d="M-42.062 181.838a788.175 788.175 0 0 0-16.2 24.926l-8.705-2.502c7.155-20.081 17.671-38.906 27.323-58.767 15.217-31.282 33.27-63.671 61.6-83.852C50.285 41.463 70.47 17.738 106.415.48c-28.22 25.58-52.676 58.675-77.164 87.929-25.166 30.027-49.356 60.944-71.313 93.429ZM-49.677 209.3a750.038 750.038 0 0 1 113.506-65.158c45.314-21.014 96.757 4.493 143.628 21.781-45.041-3.577-91.362-17.58-134.017-2.734a1254.332 1254.332 0 0 0-116.649 47.97l-6.468-1.859Z"/><path d="m-39.272 212.29-.984-.283a284.751 284.751 0 0 1 63.792-20.643c26.787-5.28 54.883 7.471 80.005 18.191 30.038 12.783 62.42 17.938 88.565 37.475-28.431-11.823-59.948-19.027-90.526-23.138-33.216-4.467-67.178-1.236-100.88-.06l-39.972-11.542ZM-56.976 207.202a699.2 699.2 0 0 1 93.24-108.283C76.482 60.917 145.344 74.591 199.92 83.8c-47.227 4.511-96.036 1.913-134.457 29.667-41.598 29.996-83.707 58.253-118.915 94.762l-3.524-1.027Z"/></g></svg>
